icons/svg-signs/give_way.svg

<?xml version="1.0" encoding="UTF-8" standalone="no"?>
<svg
   xmlns:dc="http://purl.org/dc/elements/1.1/"
   xmlns:cc="http://creativecommons.org/ns#"
   xmlns:rdf="http://www.w3.org/1999/02/22-rdf-syntax-ns#"
   xmlns:svg="http://www.w3.org/2000/svg"
   xmlns="http://www.w3.org/2000/svg"
   xmlns:sodipodi="http://sodipodi.sourceforge.net/DTD/sodipodi-0.dtd"
   xmlns:inkscape="http://www.inkscape.org/namespaces/inkscape"
   version="1.0"
   width="150.39"
   height="150.39"
   id="svg1883"
   inkscape:version="0.48.4 r9939"
   sodipodi:docname="give_way.svg">
  <metadata
     id="metadata3767">
    <rdf:RDF>
      <cc:Work
         rdf:about="">
        <dc:format>image/svg+xml</dc:format>
        <dc:type
           rdf:resource="http://purl.org/dc/dcmitype/StillImage" />
      </cc:Work>
    </rdf:RDF>
  </metadata>
  <sodipodi:namedview
     pagecolor="#ffffff"
     bordercolor="#666666"
     borderopacity="1"
     objecttolerance="10"
     gridtolerance="10"
     guidetolerance="10"
     inkscape:pageopacity="0"
     inkscape:pageshadow="2"
     inkscape:window-width="640"
     inkscape:window-height="480"
     id="namedview3765"
     showgrid="false"
     inkscape:zoom="1.7893308"
     inkscape:cx="8.4117741"
     inkscape:cy="65.946442"
     inkscape:window-x="0"
     inkscape:window-y="0"
     inkscape:window-maximized="0"
     inkscape:current-layer="svg1883" />
  <defs
     id="defs1885" />
  <g
     transform="translate(-170.5177,-445.73867)"
     id="layer1">
    <g
       transform="matrix(1.249992,0,0,-1.249992,-124.9512,1114.008)"
       style="font-style:normal;font-variant:normal;font-weight:normal;font-stretch:normal;letter-spacing:normal;word-spacing:normal;text-anchor:start;fill:none;stroke:#000000;stroke-linecap:butt;stroke-linejoin:miter;stroke-miterlimit:10.43299961;stroke-opacity:1;stroke-dasharray:none;stroke-dashoffset:0"
       id="g10"
       xml:space="preserve">
<path
   d="m 300.83,424.18 55.19,95.59 0,0 c 1.91,3.31 -0.48,7.45 -4.3,7.45 l 0,0 -110.38,-0.01 0,0 c -3.82,0.01 -6.2,-4.13 -4.29,-7.44 l 0,0 55.18,-95.59 0,0 c 1.91,-3.3 6.69,-3.3 8.6,0 z"
   style="fill:#ff1721;fill-rule:nonzero;stroke:#ff1721;stroke-width:0"
   id="path12"
   inkscape:connector-curvature="0" />
<polygon
   points="296.53,436.58 296.53,436.58 343.13,517.29 249.94,517.29 "
   style="fill:#ffffff;fill-rule:nonzero;stroke:#ffffff;stroke-width:0"
   id="polygon14" />
</g>  </g>
</svg>

<?xml version="1.0" encoding="UTF-8" standalone="no"?>
<!DOCTYPE svg PUBLIC "-//W3C//DTD SVG 1.0//EN" "http://www.w3.org/TR/2001/REC-SVG-20010904/DTD/svg10.dtd">
<svg
   xmlns:svg="http://www.w3.org/2000/svg"
   xmlns="http://www.w3.org/2000/svg"
   version="1.0"
   width="150.39304"
   height="131.89288"
   id="svg1883">
  <defs
     id="defs1885" />
  <g
     transform="translate(-170.5177,-454.9872)"
     id="layer1">
    <g
       transform="matrix(1.249992,0,0,-1.249992,-124.9512,1114.008)"
       style="font-style:normal;font-variant:normal;font-weight:normal;font-stretch:normal;letter-spacing:normal;word-spacing:normal;text-anchor:start;fill:none;fill-opacity:1;stroke:black;stroke-linecap:butt;stroke-linejoin:miter;stroke-miterlimit:10.43299961;stroke-dasharray:none;stroke-dashoffset:0;stroke-opacity:1"
       id="g10"
       xml:space="preserve">
<path
   d="M 300.83,424.18 L 356.02,519.77 L 356.02,519.77 C 357.93,523.08 355.54,527.22 351.72,527.22 L 351.72,527.22 L 241.34,527.21 L 241.34,527.21 C 237.52,527.22 235.14,523.08 237.05,519.77 L 237.05,519.77 L 292.23,424.18 L 292.23,424.18 C 294.14,420.88 298.92,420.88 300.83,424.18 z "
   style="fill:#ff1721;fill-rule:nonzero;stroke:#ff1721;stroke-width:0"
   id="path12" />
<polygon
   points="296.53,436.58 343.13,517.29 249.94,517.29 296.53,436.58 "
   style="fill:white;fill-rule:nonzero;stroke:white;stroke-width:0"
   id="polygon14" />
</g>  </g>
</svg>
